X: 29369
T: Newmarket, The
R: polka
M: 2/4
K: Amajor
|:e2 c2|BE Ac|BE AB|cB Bc|
e2 c2|BE Ac|BE AB|cA A2:|
|:e2 a2|gf fe|ce fg|fe c2|
e2 a2|gf fe|ce fg|a2 a2:|

